src/topics/icons/codepen.svg

<svg height="93" preserveAspectRatio="xMidYMid" viewBox="0 0 512 93" width="512" xmlns="http://www.w3.org/2000/svg"><g fill="#ccc" transform="translate(0 -1)"><path d="m32.1329708 23.8999612c5.7388738 0 10.9980584 2.0753398 15.086602 5.504l5.557437-6.6236894c-5.5872622-4.696233-12.787573-7.5321165-20.6415534-7.5321165-17.7199224 0-32.1354564 14.4155341-32.1354564 32.1342137 0 17.721165 14.415534 32.136699 32.136699 32.131728 7.8539806 0 15.0542912-2.8358834 20.6415534-7.5321164l-5.5574368-6.6236894c-4.0835728 3.4311456-9.3464856 5.504-15.0853592 5.504-12.9478836 0-23.48240786-10.5332814-23.48240786-23.4799222-.00124272-12.9466408 10.53452426-23.4848932 23.48365046-23.4824078z"/><path d="m210.010718 17.103534h-17.302368c-2.388505 0-4.324661 1.937398-4.324661 4.3246602v51.9071068c0 2.3860194 1.938641 4.3246602 4.324661 4.3246602h17.302368c16.697166 0 30.278836-13.5829126 30.278836-30.278835 0-16.6984078-13.580428-30.2813204-30.282564-30.2775922zm0 51.9071068h-12.976466v-43.255301h12.976466c11.92637 0 21.623302 9.705631 21.623302 21.6282718.00497 11.9313398-9.696932 21.6245438-21.62703 21.6270292z"/><path d="m263.71231 21.4294368v51.9071068c0 2.3860196 1.938642 4.3246602 4.32466 4.3246602h36.047534v-8.650563h-31.720388v-17.3036116h20.185476v-8.6505632h-20.185476v-17.3011262h31.720388v-8.6505631h-36.047534c-2.387262-.0049709-4.319688 1.9336699-4.319688 4.3246601z"/><path d="m394.648854 21.4294368v51.9071068c0 2.3860196 1.938642 4.3246602 4.32466 4.3246602h36.046292v-8.650563h-31.720388v-17.3036116h20.186718v-8.6505632h-20.186718v-17.3011262h31.720388v-8.6505631h-36.045048c-2.388506-.0049709-4.32466 1.9336699-4.32466 4.3246601z"/><path d="m353.482564 17.103534h-18.745166c-2.388504 0-4.32466 1.937398-4.32466 4.3246602v56.2330096h8.651806v-25.9541746h14.419262c9.54035 0 17.302368-7.7620194 17.302368-17.3011262-.001242-9.5391068-7.763262-17.3060972-17.30734-17.302369zm0 25.952932h-14.419264v-17.3011262h14.419264c4.770796 0 8.64932 3.8772816 8.64932 8.6505632 0 4.7732814-3.878524 8.6542912-8.65305 8.650563z"/><path d="m502.649786 17.103534v44.2855146l-35.606368-42.7296311c-1.16567-1.4005437-3.083184-1.92-4.795652-1.2986408-1.712466.6213592-2.85328 2.246835-2.85328 4.0674175v56.2330096h8.651806v-44.2842718l35.606368 42.7283884c.838836 1.006602 2.062912 1.553398 3.318058 1.553398.492116 0 .990448-.0820194 1.472622-.2572426 1.712466-.6213592 2.853282-2.246835 2.853282-4.0674176v-56.2330097h-8.646836z"/><path d="m163.808932 32.6350292c-.021126-.1118448-.039767-.2236894-.069592-.3330486-.018641-.065864-.04101-.128-.062136-.1926214-.031068-.096932-.063379-.193864-.101903-.2883106-.02734-.0658642-.058408-.1292428-.088233-.1926214-.042252-.0894758-.085748-.1777088-.135456-.2634564-.034796-.0633786-.074563-.123029-.113088-.1839222-.053437-.0820194-.108116-.1627962-.167767-.2410874-.043495-.0584078-.088233-.1143302-.135456-.1702524-.062136-.0745632-.129243-.1453982-.19635-.2149904-.052194-.0521942-.104388-.1043884-.159068-.1553398-.072077-.065864-.14664-.128-.224932-.1876504-.05965-.0459806-.118058-.093204-.180194-.1354564-.022369-.0161552-.042252-.034796-.065864-.0497086l-42.172893-28.11774767c-1.330951-.88854369-3.067029-.88854369-4.397981 0l-42.1753782 28.11650487c-.0236116.0149126-.0422524.0335534-.0658642.0497088-.0621358.043495-.1205436.0894756-.180194.1354562-.0770486.0608932-.1528544.1230292-.2249322.1864078-.0546796.0497088-.1068738.101903-.1578252.1553398-.0695922.0695922-.1342136.1404272-.1975922.2149904-.0472232.0559222-.0919612.1118446-.1354564.1739804-.0596504.0782914-.11433.1578254-.1677668.2410874-.0385244.0608932-.0770486.1205438-.1130874.1839224-.0497088.0857476-.093204.1739806-.1342136.2609708-.0298254.0633788-.062136.128-.088233.1926214-.0385244.0944466-.0720778.1913786-.1031458.2883108-.0211262.0646212-.043495.128-.0608932.1864076-.0285824.1093592-.0497086.2199612-.0695922.3330486-.0111844.057165-.0248544.1130874-.0323106.1714952-.022369.1714952-.0347962.3429902-.0347962.5182136v28.1227184c0 .1739806.0124272.3479612.0372816.5182136.008699.062136.0248544.1118446.0372816.1714952.0198834.1118446.0372816.2236892.074563.335534.0173982.0621358.0372816.1242718.062136.1926212.031068.0994176.062136.198835.0994174.2895534.0260972.062136.062136.124272.0869904.1864078.0410096.0869904.0869902.1739806.136699.264699.0347962.062136.0745632.124272.1118446.181437.053437.0869902.1118448.1615534.1739806.2361164.0434952.062136.0869904.1118448.136699.1714952.0633788.0745632.124272.1491262.198835.2149904.0509514.0497086.0994174.1118446.1615534.1491262.0720776.0621358.1491262.1242718.2236894.1888932.0596504.0497086.1242718.0869902.1739806.1354562.0236116.0124272.0372814.0372816.0621358.048466l42.1641938 28.1314176c.666098.4473786 1.429127.6710678 2.199612.6673398.770486-.0037282 1.533515-.2236894 2.199612-.6673398l42.175378-28.116505c.023612-.0149126.043496-.0323106.065864-.048466.062136-.043495.120544-.0894756.180195-.1354562.077048-.0608932.152854-.1242718.224932-.1888932.054679-.048466.106873-.101903.159068-.1540972.068349-.0695922.134213-.1404272.196349-.2149902.047223-.0559224.091961-.1118446.135456-.1714952.059651-.0782912.114331-.159068.167767-.2410874.038525-.0596504.077049-.1205436.113088-.1814368.049709-.0869904.093204-.1752234.135456-.264699.029825-.0633788.060893-.1267574.088233-.1913788.038524-.0956892.070835-.1926212.101903-.2895534.021126-.0646212.043495-.128.062136-.1926212.028582-.1093594.048466-.221204.069592-.3330486.009942-.057165.024855-.1130874.031068-.1714952.022369-.1714952.034796-.3429902.034796-.5182136v-28.1177476c0-.1752232-.01367-.3467184-.034796-.5182136-.009942-.0608932-.028582-.1106018-.04101-.171495zm-46.072544 24.1286212-14.024077-9.3800388 14.024077-9.3812816 14.025321 9.3812816zm-3.964271-25.6497086-17.1917674 11.4988738-13.877437-9.2831068 31.0692044-20.7123884zm-24.3237286 16.2684272-9.9193786 6.6348738v-13.2697476zm7.1319612 4.7745242 17.1917674 11.497631v18.4966214l-31.0692044-20.7148738 13.877437-9.281864zm25.1215534 11.4951456 17.191767-11.497631 13.87868 9.281864-31.070447 20.7123884zm24.323728-16.2671844 9.920621-6.6361166v13.2709904l-9.920621-6.6373592zm-7.131961-4.7720388-17.191767-11.4976312v-18.497864l31.070447 20.7123884z"/></g></svg>

<?xml version="1.0" encoding="UTF-8" standalone="no" ?>
<svg width="512px" height="93px" viewBox="0 0 512 93" version="1.1" xmlns="http://www.w3.org/2000/svg" xmlns:xlink="http://www.w3.org/1999/xlink" preserveAspectRatio="xMidYMid">
    <g transform="translate(0.000000, -1.000000)" fill="#CCCCCC">
        <path d="M32.1329708,23.8999612 C37.8718446,23.8999612 43.1310292,25.975301 47.2195728,29.4039612 L52.7770098,22.7802718 C47.1897476,18.0840388 39.9894368,15.2481553 32.1354564,15.2481553 C14.415534,15.2481553 0,29.6636894 0,47.382369 C0,65.103534 14.415534,79.519068 32.136699,79.514097 C39.9906796,79.514097 47.1909902,76.6782136 52.7782524,71.9819806 L47.2208156,65.3582912 C43.1372428,68.7894368 37.87433,70.8622912 32.1354564,70.8622912 C19.1875728,70.8622912 8.65304854,60.3290098 8.65304854,47.382369 C8.65180582,34.4357282 19.1875728,23.8974758 32.136699,23.8999612 L32.1329708,23.8999612 L32.1329708,23.8999612 Z"></path>
        <path d="M210.010718,17.103534 L192.70835,17.103534 C190.319845,17.103534 188.383689,19.040932 188.383689,21.4281942 L188.383689,73.335301 C188.383689,75.7213204 190.32233,77.6599612 192.70835,77.6599612 L210.010718,77.6599612 C226.707884,77.6599612 240.289554,64.0770486 240.289554,47.3811262 C240.289554,30.6827184 226.709126,17.0998058 210.00699,17.103534 L210.010718,17.103534 L210.010718,17.103534 Z M210.010718,69.0106408 L197.034252,69.0106408 L197.034252,25.7553398 L210.010718,25.7553398 C221.937088,25.7553398 231.63402,35.4609708 231.63402,47.3836116 C231.63899,59.3149514 221.937088,69.0081554 210.00699,69.0106408 L210.010718,69.0106408 L210.010718,69.0106408 Z"></path>
        <path d="M263.71231,21.4294368 L263.71231,73.3365436 C263.71231,75.7225632 265.650952,77.6612038 268.03697,77.6612038 L304.084504,77.6612038 L304.084504,69.0106408 L272.364116,69.0106408 L272.364116,51.7070292 L292.549592,51.7070292 L292.549592,43.056466 L272.364116,43.056466 L272.364116,25.7553398 L304.084504,25.7553398 L304.084504,17.1047767 L268.03697,17.1047767 C265.649708,17.0998058 263.717282,19.0384466 263.717282,21.4294368 L263.71231,21.4294368 L263.71231,21.4294368 Z"></path>
        <path d="M394.648854,21.4294368 L394.648854,73.3365436 C394.648854,75.7225632 396.587496,77.6612038 398.973514,77.6612038 L435.019806,77.6612038 L435.019806,69.0106408 L403.299418,69.0106408 L403.299418,51.7070292 L423.486136,51.7070292 L423.486136,43.056466 L403.299418,43.056466 L403.299418,25.7553398 L435.019806,25.7553398 L435.019806,17.1047767 L398.974758,17.1047767 C396.586252,17.0998058 394.650098,19.0384466 394.650098,21.4294368 L394.648854,21.4294368 L394.648854,21.4294368 Z"></path>
        <path d="M353.482564,17.103534 L334.737398,17.103534 C332.348894,17.103534 330.412738,19.040932 330.412738,21.4281942 L330.412738,77.6612038 L339.064544,77.6612038 L339.064544,51.7070292 L353.483806,51.7070292 C363.024156,51.7070292 370.786174,43.9450098 370.786174,34.405903 C370.784932,24.8667962 363.022912,17.0998058 353.478834,17.103534 L353.482564,17.103534 L353.482564,17.103534 Z M353.482564,43.056466 L339.0633,43.056466 L339.0633,25.7553398 L353.482564,25.7553398 C358.25336,25.7553398 362.131884,29.6326214 362.131884,34.405903 C362.131884,39.1791844 358.25336,43.0601942 353.478834,43.056466 L353.482564,43.056466 L353.482564,43.056466 Z"></path>
        <path d="M502.649786,17.103534 L502.649786,61.3890486 L467.043418,18.6594175 C465.877748,17.2588738 463.960234,16.7394175 462.247766,17.3607767 C460.5353,17.9821359 459.394486,19.6076117 459.394486,21.4281942 L459.394486,77.6612038 L468.046292,77.6612038 L468.046292,33.376932 L503.65266,76.1053204 C504.491496,77.1119224 505.715572,77.6587184 506.970718,77.6587184 C507.462834,77.6587184 507.961166,77.576699 508.44334,77.4014758 C510.155806,76.7801166 511.296622,75.1546408 511.296622,73.3340582 L511.296622,17.1010485 L502.649786,17.1010485 L502.649786,17.103534 L502.649786,17.103534 Z"></path>
        <path d="M163.808932,32.6350292 C163.787806,32.5231844 163.769165,32.4113398 163.73934,32.3019806 C163.720699,32.2361166 163.69833,32.1739806 163.677204,32.1093592 C163.646136,32.0124272 163.613825,31.9154952 163.575301,31.8210486 C163.547961,31.7551844 163.516893,31.6918058 163.487068,31.6284272 C163.444816,31.5389514 163.40132,31.4507184 163.351612,31.3649708 C163.316816,31.3015922 163.277049,31.2419418 163.238524,31.1810486 C163.185087,31.0990292 163.130408,31.0182524 163.070757,30.9399612 C163.027262,30.8815534 162.982524,30.825631 162.935301,30.7697088 C162.873165,30.6951456 162.806058,30.6243106 162.738951,30.5547184 C162.686757,30.5025242 162.634563,30.45033 162.579883,30.3993786 C162.507806,30.3335146 162.433243,30.2713786 162.354951,30.2117282 C162.295301,30.1657476 162.236893,30.1185242 162.174757,30.0762718 C162.152388,30.0601166 162.132505,30.0414758 162.108893,30.0265632 L119.936,1.90881553 C118.605049,1.02027184 116.868971,1.02027184 115.538019,1.90881553 L73.3626408,30.0253204 C73.3390292,30.040233 73.3203884,30.0588738 73.2967766,30.0750292 C73.2346408,30.1185242 73.176233,30.1645048 73.1165826,30.2104854 C73.039534,30.2713786 72.9637282,30.3335146 72.8916504,30.3968932 C72.8369708,30.446602 72.7847766,30.4987962 72.7338252,30.552233 C72.664233,30.6218252 72.5996116,30.6926602 72.536233,30.7672234 C72.4890098,30.8231456 72.4442718,30.879068 72.4007766,30.9412038 C72.3411262,31.0194952 72.2864466,31.0990292 72.2330098,31.1822912 C72.1944854,31.2431844 72.1559612,31.302835 72.1199224,31.3662136 C72.0702136,31.4519612 72.0267184,31.5401942 71.9857088,31.6271844 C71.9558834,31.6905632 71.9235728,31.7551844 71.8974758,31.8198058 C71.8589514,31.9142524 71.825398,32.0111844 71.79433,32.1081166 C71.7732038,32.1727378 71.750835,32.2361166 71.7334368,32.2945242 C71.7048544,32.4038834 71.6837282,32.5144854 71.6638446,32.6275728 C71.6526602,32.6847378 71.6389902,32.7406602 71.631534,32.799068 C71.609165,32.9705632 71.5967378,33.1420582 71.5967378,33.3172816 L71.5967378,61.44 C71.5967378,61.6139806 71.609165,61.7879612 71.6340194,61.9582136 C71.6427184,62.0203496 71.6588738,62.0700582 71.671301,62.1297088 C71.6911844,62.2415534 71.7085826,62.353398 71.745864,62.4652428 C71.7632622,62.5273786 71.7831456,62.5895146 71.808,62.657864 C71.839068,62.7572816 71.870136,62.856699 71.9074174,62.9474174 C71.9335146,63.0095534 71.9695534,63.0716894 71.9944078,63.1338252 C72.0354174,63.2208156 72.081398,63.3078058 72.1311068,63.3985242 C72.165903,63.4606602 72.20567,63.5227962 72.2429514,63.5799612 C72.2963884,63.6669514 72.3547962,63.7415146 72.416932,63.8160776 C72.4604272,63.8782136 72.5039224,63.9279224 72.553631,63.9875728 C72.6170098,64.062136 72.677903,64.136699 72.752466,64.2025632 C72.8034174,64.2522718 72.8518834,64.3144078 72.9140194,64.3516894 C72.986097,64.4138252 73.0631456,64.4759612 73.1377088,64.5405826 C73.1973592,64.5902912 73.2619806,64.6275728 73.3116894,64.6760388 C73.335301,64.688466 73.3489708,64.7133204 73.3738252,64.7245048 L115.538019,92.8559224 C116.204117,93.303301 116.967146,93.5269902 117.737631,93.5232622 C118.508117,93.519534 119.271146,93.2995728 119.937243,92.8559224 L162.112621,64.7394174 C162.136233,64.7245048 162.156117,64.7071068 162.178485,64.6909514 C162.240621,64.6474564 162.299029,64.6014758 162.35868,64.5554952 C162.435728,64.494602 162.511534,64.4312234 162.583612,64.366602 C162.638291,64.318136 162.690485,64.264699 162.74268,64.2125048 C162.811029,64.1429126 162.876893,64.0720776 162.939029,63.9975146 C162.986252,63.9415922 163.03099,63.88567 163.074485,63.8260194 C163.134136,63.7477282 163.188816,63.6669514 163.242252,63.584932 C163.280777,63.5252816 163.319301,63.4643884 163.35534,63.4034952 C163.405049,63.3165048 163.448544,63.2282718 163.490796,63.1387962 C163.520621,63.0754174 163.551689,63.0120388 163.579029,62.9474174 C163.617553,62.8517282 163.649864,62.7547962 163.680932,62.657864 C163.702058,62.5932428 163.724427,62.529864 163.743068,62.4652428 C163.77165,62.3558834 163.791534,62.2440388 163.81266,62.1321942 C163.822602,62.0750292 163.837515,62.0191068 163.843728,61.960699 C163.866097,61.7892038 163.878524,61.6177088 163.878524,61.4424854 L163.878524,33.3247378 C163.878524,33.1495146 163.864854,32.9780194 163.843728,32.8065242 C163.833786,32.745631 163.815146,32.6959224 163.802718,32.6350292 L163.808932,32.6350292 L163.808932,32.6350292 Z M117.736388,56.7636504 L103.712311,47.3836116 L117.736388,38.00233 L131.761709,47.3836116 L117.736388,56.7636504 L117.736388,56.7636504 Z M113.772117,31.1139418 L96.5803496,42.6128156 L82.7029126,33.3297088 L113.772117,12.6173204 L113.772117,31.1139418 L113.772117,31.1139418 Z M89.4483884,47.382369 L79.5290098,54.0172428 L79.5290098,40.7474952 L89.4483884,47.382369 L89.4483884,47.382369 Z M96.5803496,52.1568932 L113.772117,63.6545242 L113.772117,82.1511456 L82.7029126,61.4362718 L96.5803496,52.1544078 L96.5803496,52.1568932 L96.5803496,52.1568932 Z M121.701903,63.6520388 L138.89367,52.1544078 L152.77235,61.4362718 L121.701903,82.1486602 L121.701903,63.6520388 L121.701903,63.6520388 Z M146.025631,47.3848544 L155.946252,40.7487378 L155.946252,54.0197282 L146.025631,47.382369 L146.025631,47.3848544 L146.025631,47.3848544 Z M138.89367,42.6128156 L121.701903,31.1151844 L121.701903,12.6173204 L152.77235,33.3297088 L138.89367,42.6128156 L138.89367,42.6128156 Z"></path>
    </g>
</svg>
